X: 78
T: A Voice I Sent
C: Teton Sioux band 1911-1914
N: Derived from sioux078.krn
O: South Dakota, U.S.A.
N: Teton Sioux Music by Frances Densmore, 1918
Z: transcribed to **kern format by Craig Sapp
L: 1/8
M: 3/4
Q: 1/4=58
K: Bb clef=bass
%%linebreak <none>
F/ [I:setbarnb 1]| 
(3(F D) DD2(3(D C C) | 
B,> B,B,2-B,3/ F/ | 
(3(F D) DD2(3(D C C) | 
B,> B,B,2-B, (3C/ C/ C/ ||  
[M:2/4]B,2B,2 | 
(C< B,) (B,7// G,//) ||  
[M:3/4]F, =E, F,> E,F,2 ||  
[M:2/4]F,2F,3/ D,/ ||  
[M:3/4]D,2D,2-D,3/ A,/ ||  
G,> G,B,2B,2 | 
C< B,B,2-B,3/ G,/ | 
C> CB,2B,2 ||  
[M:2/4]C2C2 ||  
[M:3/4]B,> B,B,2B,2 ||  
[M:2/4]B,2B,3/ G,/ | 
F,2F,2 |]  



